X: 34434
T: Rickett's
R: hornpipe
M: 4/4
K: Fmajor
f3 c- c2 fe|d2 gf e2 dc|d3 c- c2 BA|G2 cB A2 GF|
f3 c- c2 fe|d2 gf e2 dc|d2 c2- c2 =B2|c4 z2 A2|
Bcde f3 f|gaba g3 f|g2 f2 f2 e2|f4 z2 A2|
Bcde f3 f|gaba g3 f|g2 f2 f2 e2|f4- f2 z2||
K: GMajor
g3 d- d2 gf|e2 ag f2 ed|e3 d- d2 cB|A2 dc B2 AG|
g3 d- d2 gf|e2 ag f2 ed|e2 d2- d2 ^c2|d4 z2 B2||
cdef g3 g|abc'b a3 g|a2 g2 g2 f2|g4 z2 B2|
cdef g3 g|abc'b a3 g|a2 g2 g2 f2|g4- g2 z2||

